X:1340
T:Halling från Ekshärad efter Per Lööf
S:Efter Ben Teitelbaum
S:Efter Per Lööf
Z:[[http://www.bluerose.karenlmyers.org/IncipitsHalling2.html|Karen Myers (#2083)]]
Z:Upptecknad 7/2008
M:2/4
L:1/16
R:Halling
N:Tonarten är egentligen hexatonisk (D E F G A C#)
K:Dm
(Aa)gba4 | (ag)eg f2>(e2 | f2)ag e2gf | (df)ed (^c2A2) |
(Aa)gba4 | (ag)eg f2>(e2 | f2)ag e2gf | (df)e^cd4 :|
|: A2(d^c d2)e2- | e2(fe f2)(e^c | A2)(d^c d2)eg | (fe)d^c d2AF |
D2(d^c d2)e2- | e2(fe f2)(e^c | A2)(d^c d2)eg | (fe)d^c d4 :|
(:musicend:)

(:music:)
